X:100
T: AN DEM HIMMEL SIND ZWEI STERNE
N: E0699E
O: Europa, Mitteleuropa, Deutschland, Schlesien
R: Liebes - Lied, Leid, Klage
M: 3/4
L: 1/16
K: G
 | G2D2G4B4 | A2G2A4c4
B2G2B4d4 | d2B2A4z2
B2 | d2c2B4d4 | e2c2A4c2
B2 | d2B2G4B4 | BAA2G4z2
B2 | d2c2B4d4 | e2c2A4c2
B2 | d2B2G4B4 | BAA2G4z4

